!!!COM: Ce/cile Chaminade
!!!CNT: Francais
!!!TXO: Francais
!!!OTL: "L' Ide/al"
!!!LYR: Sully-Prudhomme, Rene/-Franc5ois
!!!ENC: Amanda Harris
!!!YOR: Album of Songs, Volume 1
!!!YOR: Da Capo Press
!!!ODT: 1888/
!!NB: Vocal melody and text encoded.
**kern	**silbe
*clefG2	*
*k[b-e-a-d-]	*
*M9/8	*
*MM96	*
=4	=4
4r	.
8r	.
4r	.
8r	.
4r	.
{8e-	{La
=5	=5
4a-	lune
8a-	est
[4.a-	gran-
4.a-]	-de
=6	=6
4a-	le
8a-	ciel
4.a-	clair
4a-	Et
8a-	plein
=7	=7
4.ee-	d'as-
4cc	-tres,
8a-	la
8f	ter-
8g	|
8a-	-re ests
=8	=8
[4.b-	ble^-
4b-]}	-me}
8r	.
{4.f	{Et
=9	=9
8b-	l'a^-
8b-	-me
8b-	du
2.b-	mon-
=10	=10
8.b-	-de est
8.b-	dans
[4.b-	l'air,
4b-]	|
8b-	Je
=11	=11
4.ff	re^ve
4dd	a\
8b-	l'e/-
8f	-toi-
8g	-le
8a-	su-
=12	=12
4.cc	-pre^-
4.b-	|
4a-}	-me.}
8r	.
=14	=14
4r	.
8r	.
4r	.
8r	.
4r	.
{8c	{A
=15	=15
4.g	cel-
4g	-le
8g	qu'on
8f	n'a-
8g	-per-
8a-	-c5oit
=16	=16
[2.b-	pas,
4.b-]}	|}
=17	=17
{4b-	{Mais
8b-	ont
4b-	la
8b-	lu-
8a-	-mie\-
8b-	-re
8cc	voy-
=18	=18
2.dd	-a-
8dd}	-ge}
{4f	{Et
=19	=19
4cc	doit
8g	ve-
4.g	-nir
8f	jus-
8a-	-qu'i-
8b-	-ci-
=20	=20
2.cc}	-bas}
{4cc	{En-
8cc	-chan-
=21	=21
4ee-	-ter
8b-	les
4.b-	yeux
8g	d'un
8f	|
8e-	autre
=22	=22
4.f	a^-
4.e-}	-ge.}
{4a-	{Quand
8a-	lui-
=23	=23
4.a-	-ra
8.a-	cette
8.a-	e/-
8.a-	-toile
8.a-	un
=24	=24
2.a-}	jour,}
{4a-	{La
8a-	plus
=25	=25
4.ee-	belle
4cc	et
8a-	la
8f	plus
8g	|
8a-	loin-
=26	=26
4.b-	-tai-
4.b-}	-ne,}
{4f	{Di-
8f	-tes-
=27	=27
8.b-	-lui
8.b-	qu'elle
4.b-	eu^t
8.b-	mon
8.b-	a-
=28	=28
2.b-}	-mour,}
{4b-	{O
8b-	der-
=29	=29
[2.ff	-niers
4.ff_	|
=29	=29
4.ff]	|
4dd	de
8b-	la
8f	ra-
8g	|
8a-	-ce hu-
=30	=30
2.cc	-mai-
4.b-	|
=31	=31
4.a-	-ne!
8a-}	|}
8r	.
8r	.
4r	.
8r	.
*-	*-
